app/assets/images/heroicons/mini/clipboard-document.svg

<svg width="20" height="20" viewBox="0 0 20 20" fill="none" xmlns="http://www.w3.org/2000/svg">
<path fill-rule="evenodd" clip-rule="evenodd" d="M15.9877 3.0124C17.1186 3.1311 18.0001 4.08761 18.0001 5.25V11.75C18.0001 12.9926 16.9927 14 15.7501 14H13.5001V10.6213C13.5001 9.82567 13.184 9.06261 12.6214 8.5L9.50008 5.37868C9.1106 4.9892 8.62505 4.71787 8.09912 4.58776C8.35944 3.74123 9.10578 3.10756 10.0125 3.0124C10.1312 1.88145 11.0877 1 12.2501 1H13.7501C14.9125 1 15.869 1.88145 15.9877 3.0124ZM11.5001 3.25C11.5001 2.83579 11.8359 2.5 12.2501 2.5H13.7501C14.1643 2.5 14.5001 2.83579 14.5001 3.25V3.5H11.5001V3.25Z" fill="#0F172A"/>
<path d="M3.5 6C2.67157 6 2 6.67157 2 7.5V16.5C2 17.3284 2.67157 18 3.5 18H10.5C11.3284 18 12 17.3284 12 16.5V10.6213C12 10.2235 11.842 9.84196 11.5607 9.56066L8.43934 6.43934C8.15804 6.15804 7.7765 6 7.37868 6H3.5Z" fill="#0F172A"/>
</svg>

<svg xmlns="http://www.w3.org/2000/svg" viewBox="0 0 20 20" fill="currentColor" aria-hidden="true" data-slot="icon">
  <path fill-rule="evenodd" d="M15.988 3.012A2.25 2.25 0 0 1 18 5.25v6.5A2.25 2.25 0 0 1 15.75 14H13.5v-3.379a3 3 0 0 0-.879-2.121l-3.12-3.121a3 3 0 0 0-1.402-.791 2.252 2.252 0 0 1 1.913-1.576A2.25 2.25 0 0 1 12.25 1h1.5a2.25 2.25 0 0 1 2.238 2.012ZM11.5 3.25a.75.75 0 0 1 .75-.75h1.5a.75.75 0 0 1 .75.75v.25h-3v-.25Z" clip-rule="evenodd"/>
  <path d="M3.5 6A1.5 1.5 0 0 0 2 7.5v9A1.5 1.5 0 0 0 3.5 18h7a1.5 1.5 0 0 0 1.5-1.5v-5.879a1.5 1.5 0 0 0-.44-1.06L8.44 6.439A1.5 1.5 0 0 0 7.378 6H3.5Z"/>
</svg>
